X: 29311
T: New Whistle, The
R: reel
M: 4/4
K: Bminor
Bd|:fdgf egfe|feed cABd|fd g2e a2g|fgfe dBBd|
fdgf egfe|feed cABd|fd g2e a2g|1 baag gfBd:|2 baag gfd2||
|:fbaf fdBA|B3dfd A2|dBdf edc2|ffdf edBd|
fbaf fdBA|B3 dfdA|dBdf edc2|ffdf dcfa:|

